X: 9
T: The Man Of The House
R: reel
M: 4/4
L: 1/8
K: Amix
A3 BA2 GE|A2 GA BddB|A3 B AGED|G2GA BddB|
A3 BA2 GE|A2 GA BddB|AB=cB AGED|G2GA Bddg||
e~g3 a3 a|gabg aged|e~g3 a2 ga|bgef gedB|
e~g3 agbg|agbg aged|efgb a2 ga|bgef gedB||


Tune 222	Setting 12906

